X: 191
T: Il viendra le jour d\'esir\'e
N: Derived from Rue3012-Il_viendra_le_jour_desire.krn
C: Pierre de la Rue
%%abc-version 2.0
%%abcx-abcm2ps-target-version 5.9.1 (29 Sep 2008)
%%abc-creator hum2abc beta
%%abcx-conversion-date 2019/02/17 08:01:17
%%abc-edited-by Jesse Rodin
%%abc-edited-by Chris Gage 06-17-2013
%%abcx-initial-encoding-date 2013/08/06/
%%humdrum-veritas 568436752
%%humdrum-veritas-data 4030628349
%%linebreak <none>
%%barnumbers 0
L: 1/4
M: 2/1
Q: 1/2=120
%%staves [1 2 3 4]
V: 1 clef=treble
V: 2 clef=treble-8
V: 3 clef=treble-8
V: 4 clef=bass
K: C
[V:1] z8 | 
[V:2] B4GABA/B/ | 
[V:3] z8 | 
[V:4] E,8 | 
[V:1] z8 | 
[V:2] c2B4e2- | 
[V:3] z8 | 
[V:4] E,4E,4 | 
[V:1] z8 | 
[V:2] e2d2e4 | 
[V:3] z8 | 
[V:4] F,4E,4 | 
[V:1] E4CDED/E/ | 
[V:2] z2e4dc | 
[V:3] A8 | 
[V:4] A,,8 | 
[V:1] F2E4A2- | 
[V:2] d2c3de2- | 
[V:3] A4A4 | 
[V:4] z4A,,4 | 
[V:1] A2G2A4 | 
[V:2] e2e4d2 | 
[V:3] B4A4 | 
[V:4] E,3D,/E,/F,4 | 
[V:1] z8 | 
[V:2] e6dc | 
[V:3] z4B4 | 
[V:4] E,8- | 
[V:1] B4GABA/B/ | 
[V:2] B2E2e4 | 
[V:3] GABA/B/c2B2 | 
[V:4] E,8 | 
[V:1] c2B2z2e2- | 
[V:2] z2g3fed | 
[V:3] z2e3dc2- | 
[V:4] z4E,3F, | 
[V:1] edc4B2- | 
[V:2] e8 | 
[V:3] cBA2B4 | 
[V:4] G,2A,4G,2 | 
[V:1] B2A2B4 | 
[V:2] e4z2d2 | 
[V:3] c4B2d2 | 
[V:4] A,4z4 | 
[V:1] z8 | 
[V:2] e2f2g4 | 
[V:3] c4B3c | 
[V:4] A,4G,4- | 
[V:1] z2B2A4 | 
[V:2] G4A4 | 
[V:3] d2e4d2 | 
[V:4] G,2F,E,F,4 | 
[V:1] G3AB2c2- | 
[V:2] B4E2e2 | 
[V:3] e4z2e2 | 
[V:4] E,3F,G,2A,2- | 
[V:1] c2B2c4 | 
[V:2] f2g2e4 | 
[V:3] d4c3d | 
[V:4] A,2G,2A,4- | 
[V:1] z2c2B4 | 
[V:2] A4B3c | 
[V:3] e2f4e2 | 
[V:4] A,2F,2G,3F, | 
[V:1] A3Bc2d2- | 
[V:2] d2c2A4 | 
[V:3] f4z2f2 | 
[V:4] D,2F,4E,D, | 
[V:1] d2^c2d4- | 
[V:2] z2A2B4- | 
[V:3] e4d4 | 
[V:4] A,4z4 | 
[V:1] d2cBA2G2 | 
[V:2] B2AGABc2- | 
[V:3] z2Bcdc/d/e2- | 
[V:4] G,4F,2E,2 | 
[V:1] A4G2EF | 
[V:2] c2A2B2c2- | 
[V:3] e2d2e4 | 
[V:4] F,4E,2C,D, | 
[V:1] GF/G/A4^G2 | 
[V:2] c2d2e4 | 
[V:3] c2A2B4 | 
[V:4] E,2F,2E,4 | 
[V:1] A8 | 
[V:2] e8 | 
[V:3] A8 | 
[V:4] z2A,,3B,,C,D, | 
[V:1] z8 | 
[V:2] z2A3Bcd | 
[V:3] z8 | 
[V:4] B,,2A,,2F,3E, | 
[V:1] z8 | 
[V:2] B2A4c2- | 
[V:3] z8 | 
[V:4] D,C,D,2C,2A,,2 | 
[V:1] z8 | 
[V:2] cBA4^G2 | 
[V:3] z8 | 
[V:4] C,2D,2B,,4 | 
[V:1] z2E3FGA | 
[V:2] A4z4 | 
[V:3] z4c3B | 
[V:4] A,,4z4 | 
[V:1] F2E4G2- | 
[V:2] z8 | 
[V:3] AGA2G2E2 | 
[V:4] z8 | 
[V:1] GFE4D2 | 
[V:2] z8 | 
[V:3] G2A2F4 | 
[V:4] z8 | 
[V:1] E8 | 
[V:2] G3ABcB2- | 
[V:3] E4z4 | 
[V:4] z4E,4 | 
[V:1] z4G4 | 
[V:2] BAGFE4 | 
[V:3] G3ABcB2- | 
[V:4] E,4E,4 | 
[V:1] G3ABcB2- | 
[V:2] z4e4 | 
[V:3] BAGFE4 | 
[V:4] E,3F,G,A,G,2- | 
[V:1] BAGFE4 | 
[V:2] d2g3fed | 
[V:3] z4E4- | 
[V:4] G,F,E,D,C,3B,, | 
[V:1] z4B4- | 
[V:2] c4B3c | 
[V:3] E2F2G3A | 
[V:4] A,,4G,,4 | 
[V:1] B4B4 | 
[V:2] d2G2z2g2- | 
[V:3] B4G4 | 
[V:4] z4E,4- | 
[V:1] c4B4 | 
[V:2] g2g4e2- | 
[V:3] z2G4G2 | 
[V:4] E,4E,4 | 
[V:1] z4B4 | 
[V:2] e2d2e4- | 
[V:3] A4B4 | 
[V:4] F,4E,4 | 
[V:1] B4B4 | 
[V:2] e2dcB4 | 
[V:3] E4z4 | 
[V:4] z4E,4 | 
[V:1] c4B4 | 
[V:2] z2e4e2- | 
[V:3] G8 | 
[V:4] E,4E,4 | 
[V:1] z4z2B2 | 
[V:2] ecd2G4 | 
[V:3] A4B4 | 
[V:4] F,4E,4 | 
[V:1] B2c4BA | 
[V:2] z2e3ce2- | 
[V:3] B2G2A2B2 | 
[V:4] z4z2E,2 | 
[V:1] G2A4GF | 
[V:2] edcBA2B2 | 
[V:3] c8 | 
[V:4] E,2F,4E,D, | 
[V:1] E2A3G/A/B2 | 
[V:2] c2A2z2G2 | 
[V:3] z4d4 | 
[V:4] C,2D,E,F,E,/F,/G,2- | 
[V:1] G2B3A/B/c2 | 
[V:2] B2G2B2A2 | 
[V:3] e4e4 | 
[V:4] G,2E,F,G,F,/G,/A,2- | 
[V:1] A2c3B/c/d2 | 
[V:2] c2A2c2B2 | 
[V:3] f4f4 | 
[V:4] A,2F,G,A,G,/A,/B,2 | 
[V:1] G3ABcA2- | 
[V:2] z2d4d2 | 
[V:3] e2Bcdef2- | 
[V:4] C2G,4F,2- | 
[V:1] A2G2F4 | 
[V:2] c3BA4- | 
[V:3] f2e4d2 | 
[V:4] F,E,C,2D,4 | 
[V:1] z2EFGAB2- | 
[V:2] A2GFE2F2 | 
[V:3] e2cdefd2- | 
[V:4] A,,2C,4B,,A,, | 
[V:1] BAA4^G2 | 
[V:2] G2E3DE2 | 
[V:3] d2c2B4 | 
[V:4] G,,2A,,2E,4 | 
[V:1] A8 |]  
[V:2] F4E4 |]  
[V:3] A8 |]  
[V:4] A,,8 |]  



